release/img/sport-flat.svg

<svg width="31" height="31" viewBox="0 0 31 31" fill="none" xmlns="http://www.w3.org/2000/svg">
<path d="M4.36334 15.7734C4.36334 15.6068 4.36334 15.4123 4.36334 15.2456C4.36334 15.1068 4.36333 14.9679 4.39095 14.829C4.39095 14.7456 4.39095 14.6623 4.39095 14.5512C4.47379 13.4401 4.72233 12.3845 5.10894 11.3568C7.01436 6.38453 12.0403 3.38453 17.3423 4.10675C19.5791 4.41231 21.5674 5.27342 23.2243 6.8012C26.6485 9.91231 27.8912 13.7734 26.8418 18.3012C26.0962 21.5512 24.1356 23.9679 21.236 25.6068C19.8276 26.3845 18.3088 26.8568 16.7072 26.9679C16.6243 26.9679 16.5415 26.9679 16.431 26.9679C16.2929 26.9679 16.1549 26.9679 16.0168 26.9956H15.0779C15.0779 26.9956 14.9122 26.9679 14.8017 26.9401C14.1942 26.829 13.5591 26.8012 12.9515 26.6345C9.72061 25.8012 7.31812 23.8845 5.68885 20.9679C4.91563 19.5512 4.44618 18.0234 4.33572 16.4123C4.33572 16.329 4.33572 16.2456 4.33572 16.1345C4.33572 15.9956 4.33572 15.8568 4.30811 15.7179L4.36334 15.7734ZM16.2101 9.27342C16.2101 9.85675 16.2101 10.4401 16.2101 11.0234C16.2101 11.1068 16.2653 11.2456 16.3206 11.2734C17.4804 12.2179 18.6678 13.1623 19.8553 14.1068C19.9105 14.1623 20.0209 14.1623 20.0762 14.1345C21.2912 13.7456 22.5063 13.329 23.6937 12.9123C23.7766 12.9123 23.8318 12.8012 23.8594 12.7179C24.1079 11.6901 24.3565 10.6345 24.5774 9.60676C24.5774 9.52342 24.5774 9.44009 24.5222 9.35675C23.4176 7.77342 22.0092 6.57898 20.2971 5.74564C20.2143 5.71787 20.1038 5.71787 20.0209 5.74564C18.8059 6.21787 17.5632 6.71787 16.3482 7.21787C16.2101 7.27342 16.1825 7.32898 16.1825 7.46786C16.1825 8.0512 16.1825 8.63453 16.1825 9.21787L16.2101 9.27342ZM15.3817 9.27342C15.3817 8.69009 15.3817 8.07898 15.3817 7.49564C15.3817 7.38453 15.354 7.3012 15.2436 7.27342C14.0009 6.77342 12.7582 6.3012 11.5156 5.8012C11.4327 5.77342 11.3499 5.8012 11.267 5.8012C9.52731 6.63453 8.11895 7.82898 7.01436 9.41231C6.95913 9.46787 6.95913 9.57898 6.98674 9.66231C7.23528 10.6901 7.4562 11.7179 7.70473 12.7456C7.70473 12.829 7.81519 12.9123 7.89803 12.9401C9.08547 13.3568 10.2729 13.7456 11.4603 14.1623C11.5708 14.2179 11.6537 14.1623 11.7641 14.1068C12.9239 13.1623 14.0838 12.2456 15.2436 11.3012C15.354 11.2179 15.3817 11.1345 15.3817 10.9956C15.3817 10.4123 15.3817 9.85675 15.3817 9.27342ZM7.51143 13.7179C6.76583 14.6345 6.02023 15.5234 5.27462 16.4123C5.21939 16.4679 5.19178 16.579 5.21939 16.6623C5.38508 18.329 5.93738 19.8568 6.82106 21.2734C6.84867 21.329 6.93152 21.3845 7.01436 21.4123C8.2018 21.6068 9.36162 21.8012 10.5491 21.9956C10.6043 21.9956 10.7147 21.9679 10.7424 21.9123C11.3223 21.1623 11.8746 20.4123 12.4269 19.6623C12.4545 19.6068 12.4821 19.5234 12.4821 19.4679C12.1231 18.0512 11.7917 16.6345 11.4327 15.1901C11.4327 15.1068 11.3223 15.0234 11.2394 14.9956C9.99676 14.579 8.78171 14.1623 7.51143 13.7456V13.7179ZM24.0803 13.7179C22.8377 14.1345 21.595 14.5512 20.3523 14.9679C20.2971 14.9679 20.2143 15.079 20.1866 15.1345C19.8276 16.5512 19.4687 17.9679 19.1373 19.4123C19.1373 19.4679 19.1373 19.5512 19.1649 19.6068C19.7172 20.3568 20.2971 21.1345 20.877 21.8845C20.9046 21.9401 20.9875 21.9679 21.0427 21.9679C22.2301 21.7734 23.4176 21.579 24.605 21.3845C24.6602 21.3845 24.7431 21.329 24.7707 21.2734C25.682 19.8568 26.2067 18.3012 26.3724 16.6345C26.3724 16.5512 26.3724 16.4679 26.3171 16.4123C25.5715 15.5234 24.8259 14.6068 24.0803 13.7179ZM11.3223 22.4679C11.985 23.5234 12.6478 24.5512 13.2829 25.579C13.5038 25.9401 13.7524 26.079 14.139 26.1068C14.1942 26.1068 14.2494 26.1068 14.3047 26.1068C15.6026 26.3012 16.9005 26.2179 18.1708 25.9401C18.2536 25.9401 18.3364 25.8568 18.3917 25.7734C18.9992 24.7179 19.6067 23.6623 20.2143 22.6068C20.2695 22.4956 20.2695 22.4123 20.2143 22.329C19.662 21.6068 19.1097 20.8568 18.5574 20.1345C18.5021 20.079 18.4193 20.0234 18.3364 20.0234C16.6519 20.0234 14.9674 20.0234 13.2829 20.0234C13.2001 20.0234 13.1172 20.079 13.062 20.1345C12.4821 20.8845 11.9298 21.6623 11.3223 22.4401V22.4679Z" fill="black"/>
<path d="M4.41873 14.8008C4.41873 14.8008 4.41873 15.0786 4.39111 15.2174C4.39111 15.0786 4.39111 14.9397 4.39111 14.8008C4.39111 14.8008 4.39111 14.8008 4.41873 14.8008Z" fill="#434140"/>
<path d="M4.36328 15.7734C4.36328 15.7734 4.36328 16.0512 4.3909 16.1901C4.3909 16.1901 4.3909 16.1901 4.36328 16.1901C4.36328 16.0512 4.36328 15.9123 4.36328 15.7734Z" fill="#434140"/>
<path d="M15.1333 26.9404H15.5475C15.5475 26.9404 15.2714 26.9682 15.1333 26.9682C15.1333 26.9682 15.1333 26.9682 15.1333 26.9404Z" fill="#434140"/>
<path d="M16.0723 26.9956C16.0723 26.9956 16.3484 26.9956 16.4865 26.9678C16.4865 26.9678 16.4865 26.9678 16.4865 26.9956C16.3484 26.9956 16.2103 26.9956 16.0723 26.9956Z" fill="#434140"/>
<path d="M4.41873 14.8012C4.41873 14.8012 4.41873 14.8012 4.39111 14.8012C4.39111 14.7179 4.39111 14.6345 4.39111 14.5234C4.39111 14.5234 4.41873 14.5234 4.44634 14.5234C4.44634 14.6068 4.44634 14.6901 4.44634 14.8012H4.41873Z" fill="#858383"/>
<path d="M4.36355 16.1621C4.36355 16.1621 4.36355 16.1621 4.39117 16.1621C4.39117 16.2454 4.39117 16.3288 4.39117 16.4399C4.39117 16.4399 4.36355 16.4399 4.33594 16.4399C4.33594 16.3566 4.33594 16.2732 4.33594 16.1621H4.36355Z" fill="#858383"/>
<path d="M15.1331 26.9399C15.1331 26.9399 15.1331 26.9399 15.1331 26.9677H14.8569C14.8569 26.9677 14.8569 26.9399 14.8569 26.9121C14.9398 26.9121 15.0226 26.9121 15.1331 26.9121V26.9399Z" fill="#858383"/>
<path d="M16.4863 26.9956C16.4863 26.9956 16.4863 26.9956 16.4863 26.9678C16.5692 26.9678 16.652 26.9678 16.7625 26.9678C16.7625 26.9678 16.7625 26.9678 16.7625 26.9956H16.4863Z" fill="#858383"/>
</svg>

<svg xmlns="http://www.w3.org/2000/svg" width="31" height="31" fill="none" viewBox="0 0 31 31">
  <path fill="#000" d="M4.363 15.773v-.527c0-.14 0-.278.028-.417v-.278c.083-1.11.331-2.167.718-3.194a11.41 11.41 0 0 1 12.233-7.25c2.237.305 4.225 1.166 5.882 2.694 3.424 3.111 4.667 6.972 3.618 11.5-.746 3.25-2.706 5.667-5.606 7.306-1.408.777-2.927 1.25-4.529 1.36h-.276c-.138 0-.276 0-.414.029h-.94s-.165-.028-.275-.056c-.608-.111-1.243-.139-1.85-.306-3.231-.833-5.634-2.75-7.263-5.666-.773-1.417-1.243-2.945-1.353-4.556v-.277c0-.14 0-.278-.028-.417l.055.055Zm11.847-6.5v1.75c0 .084.055.223.11.25 1.16.945 2.348 1.89 3.535 2.834.055.055.166.055.221.027 1.215-.388 2.43-.805 3.618-1.222.083 0 .138-.11.165-.194.249-1.028.497-2.084.718-3.111 0-.084 0-.167-.055-.25a10.853 10.853 0 0 0-4.225-3.611.468.468 0 0 0-.276 0c-1.215.472-2.458.972-3.673 1.472-.138.055-.165.111-.165.25v1.75l.027.055Zm-.828 0V7.496c0-.111-.028-.195-.138-.223-1.243-.5-2.486-.972-3.728-1.472-.083-.028-.166 0-.249 0a10.741 10.741 0 0 0-4.253 3.611c-.055.056-.055.167-.027.25.248 1.028.47 2.056.718 3.084 0 .083.11.166.193.194 1.187.417 2.375.806 3.562 1.222.11.056.194 0 .304-.055 1.16-.945 2.32-1.861 3.48-2.806.11-.083.138-.167.138-.305V9.273Zm-7.87 4.445a230.93 230.93 0 0 1-2.237 2.694c-.056.056-.083.167-.056.25.166 1.667.718 3.195 1.602 4.611.028.056.11.111.193.14 1.188.194 2.348.388 3.535.583.055 0 .166-.028.193-.084.58-.75 1.133-1.5 1.685-2.25a.517.517 0 0 0 .055-.194c-.359-1.417-.69-2.834-1.05-4.278 0-.083-.11-.167-.193-.194-1.242-.417-2.457-.834-3.728-1.25v-.028Zm16.568 0-3.728 1.25c-.055 0-.138.111-.165.166a193.598 193.598 0 0 0-1.05 4.278c0 .056 0 .14.028.195.552.75 1.132 1.527 1.712 2.277.028.056.11.084.166.084l3.562-.584c.055 0 .138-.055.166-.11a10.356 10.356 0 0 0 1.601-4.64c0-.083 0-.166-.055-.222-.745-.889-1.491-1.805-2.237-2.694Zm-12.758 8.75c.663 1.055 1.326 2.083 1.96 3.111.222.361.47.5.857.528h.166c1.298.194 2.596.11 3.866-.167.083 0 .165-.083.22-.167l1.823-3.166c.056-.111.056-.195 0-.278-.552-.722-1.104-1.472-1.657-2.195-.055-.055-.138-.11-.22-.11h-5.054c-.083 0-.166.055-.221.11-.58.75-1.132 1.528-1.74 2.306v.028Z"/>
  <path fill="#434140" d="M4.419 14.8s0 .279-.028.417v-.416h.028Zm-.056.973s0 .278.028.417h-.028v-.417Zm10.77 11.167h.415s-.277.028-.415.028v-.028Zm.939.056s.276 0 .415-.028v.028h-.415Z"/>
  <path fill="#858383" d="M4.419 14.801H4.39v-.278h.055v.278H4.42Zm-.055 1.361h.027v.278h-.055v-.278h.028ZM15.133 26.94v.028h-.276v-.056h.276v.028Zm1.353.056v-.028h.276v.028h-.276Z"/>
</svg>
